<?xml version='1.0' encoding='UTF-8'?>
<map version="1.10" tiledversion="1.12.2" orientation="isometric" renderorder="right-down" width="16" height="16" tilewidth="64" tileheight="32" infinite="0" nextlayerid="2" nextobjectid="1">
 <tileset firstgid="1" source="asphalt-dark.tsx" />
 <layer id="1" name="Tile Layer 1" width="16" height="16">
  <data encoding="csv">
0,0,0,0,1,0,0,0,0,0,0,0,0,0,0,0,
0,0,0,2,3,4,0,0,0,0,0,0,0,0,0,0,
0,0,5,6,7,8,9,0,0,0,0,0,0,0,0,0,
0,10,11,12,13,14,15,16,0,0,0,0,0,0,0,0,
17,18,19,20,21,22,23,24,25,0,0,0,0,0,0,0,
0,26,27,28,29,30,31,32,33,34,0,0,0,0,0,0,
0,0,35,36,37,38,39,40,41,42,43,0,0,0,0,0,
0,0,0,44,45,46,47,48,49,50,51,52,0,0,0,0,
0,0,0,0,53,54,55,56,57,58,59,60,61,0,0,0,
0,0,0,0,0,62,63,64,65,66,67,68,69,70,0,0,
0,0,0,0,0,0,71,72,73,74,75,76,77,78,79,0,
0,0,0,0,0,0,0,80,81,82,83,84,85,86,87,88,
0,0,0,0,0,0,0,0,89,90,91,92,93,94,95,96,
0,0,0,0,0,0,0,0,0,97,98,99,100,101,102,0,
0,0,0,0,0,0,0,0,0,0,103,104,105,106,0,0,
0,0,0,0,0,0,0,0,0,0,0,107,108,0,0,0
</data>
 </layer>
</map>