<?xml version='1.0' encoding='UTF-8'?>
<map version="1.10" tiledversion="1.10.2" orientation="isometric" renderorder="right-down" width="13" height="13" tilewidth="64" tileheight="32" infinite="0" nextlayerid="2" nextobjectid="1">
 <tileset firstgid="1" source="black-tiles.tsx" />
 <layer id="1" name="Tile Layer 1" width="13" height="13">
  <data encoding="csv">
1,2,3,4,0,0,0,0,0,0,0,0,0,
5,6,7,8,9,0,0,0,0,0,0,0,0,
10,11,12,13,14,15,0,0,0,0,0,0,0,
16,17,18,19,20,21,22,0,0,0,0,0,0,
0,23,24,25,26,27,28,29,0,0,0,0,0,
0,0,30,31,32,33,34,35,36,0,0,0,0,
0,0,0,37,38,39,40,41,42,43,0,0,0,
0,0,0,0,44,45,46,47,48,49,50,0,0,
0,0,0,0,0,51,52,53,54,55,56,57,0,
0,0,0,0,0,0,58,59,60,61,62,63,64,
0,0,0,0,0,0,0,65,66,67,0,68,0,
0,0,0,0,0,0,0,0,69,70,71,0,0,
0,0,0,0,0,0,0,0,0,72,0,0,0
</data>
 </layer>
</map>