<?xml version='1.0' encoding='UTF-8'?>
<map version="1.10" tiledversion="1.12.2" orientation="isometric" renderorder="right-down" width="8" height="8" tilewidth="64" tileheight="32" infinite="0" nextlayerid="2" nextobjectid="1">
 <tileset firstgid="1" source="grass-bright.tsx" />
 <layer id="1" name="Tile Layer 1" width="8" height="8">
  <data encoding="csv">
0,0,0,1,0,0,0,0,
0,0,2,3,4,0,0,0,
0,5,6,7,8,9,0,0,
10,11,12,13,14,15,16,0,
17,18,19,20,21,22,23,24,
0,25,26,27,28,29,30,0,
0,0,31,32,33,34,0,0,
0,0,0,35,36,0,0,0
</data>
 </layer>
</map>