<?xml version='1.0' encoding='UTF-8'?>
<map version="1.10" tiledversion="1.12.2" orientation="isometric" renderorder="right-down" width="11" height="11" tilewidth="64" tileheight="32" infinite="0" nextlayerid="2" nextobjectid="1">
 <tileset firstgid="1" source="grass-lush.tsx" />
 <layer id="1" name="Tile Layer 1" width="11" height="11">
  <data encoding="csv">
0,0,0,0,0,8,9,10,2,0,0,
37,38,39,40,41,15,16,17,5,8,9,
43,44,45,46,47,22,23,24,10,15,16,
39,37,38,39,40,41,15,16,17,22,23,
45,43,44,45,46,47,22,23,8,9,10,
37,38,39,40,41,28,29,30,15,16,17,
43,44,45,46,47,35,8,9,22,8,9,
37,38,39,40,41,42,15,16,17,15,16,
43,44,45,46,47,37,22,23,24,22,23,
0,48,49,8,9,10,44,45,46,47,0,
0,0,51,15,16,17,8,9,10,8,9
</data>
 </layer>
</map>