<?xml version='1.0' encoding='UTF-8'?>
<map version="1.10" tiledversion="1.10.2" orientation="isometric" renderorder="right-down" width="14" height="14" tilewidth="64" tileheight="32" infinite="0" nextlayerid="2" nextobjectid="1">
 <tileset firstgid="1" source="grass-mown.tsx" />
 <layer id="1" name="Tile Layer 1" width="14" height="14">
  <data encoding="csv">
0,0,0,0,0,0,0,1,0,0,0,0,0,0,
0,0,0,0,0,0,2,3,4,0,0,0,0,0,
0,0,0,0,0,5,6,7,8,9,0,0,0,0,
0,0,0,0,10,11,12,13,14,15,16,0,0,0,
0,0,0,17,18,19,20,21,22,23,24,25,0,0,
0,0,26,27,28,29,30,31,32,33,34,35,36,0,
0,37,38,39,40,41,42,43,44,45,46,47,48,49,
50,51,52,53,54,55,56,57,58,59,60,61,62,0,
0,63,64,65,66,67,68,69,70,71,72,73,0,0,
0,0,74,75,76,77,78,79,80,81,82,0,0,0,
0,0,0,83,84,85,86,87,88,89,0,0,0,0,
0,0,0,0,90,91,92,93,94,0,0,0,0,0,
0,0,0,0,0,95,96,97,0,0,0,0,0,0,
0,0,0,0,0,0,98,0,0,0,0,0,0,0
</data>
 </layer>
</map>