<?xml version='1.0' encoding='UTF-8'?>
<map version="1.10" tiledversion="1.10.2" orientation="isometric" renderorder="right-down" width="11" height="11" tilewidth="64" tileheight="32" infinite="0" nextlayerid="2" nextobjectid="1">
 <tileset firstgid="1" source="vijay-ghat-ground.tsx" />
 <layer id="1" name="Tile Layer 1" width="11" height="11">
  <data encoding="csv">
0,0,0,0,0,0,0,0,1,0,0,
0,0,0,0,0,0,0,2,3,4,0,
0,0,0,0,0,0,5,6,7,8,9,
0,0,0,0,0,10,11,12,13,14,0,
0,0,0,0,15,16,17,18,19,0,0,
0,0,0,20,21,22,23,24,0,0,0,
0,0,25,26,27,28,29,0,0,0,0,
0,30,31,32,33,34,0,0,0,0,0,
35,36,37,38,39,0,0,0,0,0,0,
0,40,41,42,0,0,0,0,0,0,0,
0,0,43,0,0,0,0,0,0,0,0
</data>
 </layer>
</map>