<?xml version='1.0' encoding='UTF-8'?>
<map version="1.10" tiledversion="1.12.2" orientation="isometric" renderorder="right-down" width="15" height="15" tilewidth="64" tileheight="32" infinite="0" nextlayerid="2" nextobjectid="1">
 <tileset firstgid="1" source="white-blank.tsx" />
 <layer id="1" name="Tile Layer 1" width="15" height="15">
  <data encoding="csv">
0,0,0,1,0,0,0,0,0,0,0,0,0,0,0,
0,0,2,3,4,0,0,0,0,0,0,0,0,0,0,
0,5,6,7,8,9,0,0,55,0,0,0,0,0,0,
10,11,12,13,14,15,16,0,0,55,55,55,0,0,0,
0,17,18,19,20,21,22,23,0,0,0,55,55,0,0,
0,0,24,25,26,27,28,29,30,0,0,0,0,0,0,
0,0,0,31,32,33,34,35,36,37,0,0,0,0,0,
0,0,0,0,38,39,40,41,42,43,44,0,0,0,0,
0,0,0,0,0,45,46,47,48,49,50,51,0,0,0,
0,0,0,0,0,0,52,53,54,55,56,57,58,0,0,
55,55,55,55,0,0,0,59,60,61,62,63,64,65,0,
0,0,0,55,55,0,0,0,66,67,68,69,70,71,72,
0,0,0,0,0,0,0,0,0,73,74,75,76,77,0,
0,0,0,0,0,0,0,0,0,0,78,79,80,0,0,
0,0,0,0,0,0,0,0,0,0,0,81,0,0,0
</data>
 </layer>
</map>